packages/foundations/assets/icons/functional/images/environment/cloud_32.svg

<svg width="32" height="32" viewBox="0 0 32 32" fill="none" xmlns="http://www.w3.org/2000/svg">
<g clip-path="url(#clip0_185_785)">
<path fill-rule="evenodd" clip-rule="evenodd" d="M19.5 6C17.1674 6 14.7752 7.24878 13.4384 9.08119L13.3022 9.25333C12.7219 9.08618 12.1166 9 11.5 9L11.2579 9.00445C8.36537 9.11088 5.92017 11.1169 5.20889 13.8617L5.14031 14.0758C3.20922 15.2611 2 17.2768 2 19.5C2 23.1102 5.1525 26 9 26L23.2474 25.9959C27.0009 25.8663 30 23.0177 30 19.5L29.9946 19.2421C29.9078 17.1869 28.7487 15.2957 26.9922 14.147C26.9974 13.7923 27 13.5766 27 13.5C27 9.35786 23.64 6 19.5 6ZM19.5 8C22.5376 8 25 10.4624 25 13.5C25 13.8387 24.9695 14.1729 24.9094 14.5002C24.8294 14.9365 25.0462 15.3733 25.4421 15.5733C27.0163 16.3686 28 17.8631 28 19.5C28 21.9002 25.8909 23.9034 23.1956 23.9966L9 24.0001C6.22009 24.0001 4 21.9649 4 19.5C4 17.8782 4.96541 16.3957 6.51676 15.594C6.80357 15.4458 7.00118 15.1682 7.04736 14.8487C7.36494 12.6516 9.25701 11 11.5 11C12.1421 11 12.7634 11.1339 13.3353 11.3898C13.8167 11.6051 14.3827 11.4096 14.6284 10.9429C15.5739 9.14743 17.435 8 19.5 8Z" fill="#1A1C1F"/>
</g>
<defs>
<clipPath id="clip0_185_785">
<rect width="32" height="32" fill="white"/>
</clipPath>
</defs>
</svg>

<svg xmlns="http://www.w3.org/2000/svg" width="32" height="32" fill="none"><g clip-path="url(#a)"><path fill="#1A1C1F" fill-rule="evenodd" d="M19.5 6c-2.333 0-4.725 1.249-6.062 3.081l-.136.172A6.5 6.5 0 0 0 11.5 9l-.242.004a6.5 6.5 0 0 0-6.05 4.858l-.068.214C3.21 15.26 2 17.276 2 19.5 2 23.11 5.153 26 9 26l14.247-.004C27.001 25.866 30 23.018 30 19.5l-.005-.258c-.087-2.055-1.246-3.946-3.003-5.095L27 13.5C27 9.358 23.64 6 19.5 6m0 2a5.5 5.5 0 0 1 5.41 6.5 1 1 0 0 0 .532 1.073C27.016 16.37 28 17.863 28 19.5c0 2.4-2.11 4.403-4.804 4.497L9 24c-2.78 0-5-2.035-5-4.5 0-1.622.965-3.104 2.517-3.906a1 1 0 0 0 .53-.745 4.5 4.5 0 0 1 6.288-3.46 1 1 0 0 0 1.293-.446A5.5 5.5 0 0 1 19.5 8" clip-rule="evenodd"/></g><defs><clipPath id="a"><path fill="#fff" d="M0 0h32v32H0z"/></clipPath></defs></svg>
